Newaita-dark/actions/32/folder-move.svg

<svg height="32" viewBox="0 0 32 32" width="32" xmlns="http://www.w3.org/2000/svg"><g fill="#e0e0e0"><path d="m13.792969 4.222656c-1.121094.003906-2.320313.066406-3.464844.636719-1.125.5625-1.964844 1.730469-2.265625 3.328125h-2.769531c-1.464844 0-2.648438 1.179688-2.648438 2.648438v5.289062h2.648438v-3.96875c0-.730469.589843-1.320312 1.320312-1.320312h1.449219c.300781 1.597656 1.140625 2.765624 2.265625 3.328124 1.410156.703126 2.902344.632813 4.226563.632813h11.90625v9.269531c0 .730469-.589844 1.320313-1.324219 1.320313h-6.613281v1.984375c0 .242187-.066407.46875-.175782.664062h8.113282c1.464843 0 2.644531-1.179687 2.644531-2.648437v-11.734375c.015625-.117188.015625-.234375 0-.347656v-2.46875c0-1.46875-1.179688-2.648438-2.644531-2.648438v3.976562h-11.90625c-1.324219 0-2.476563-.070312-3.050782-.359374-.574218-.285157-.925781-.601563-.925781-2.292969 0-1.691407.351563-2.007813.925781-2.296875.574219-.285156 1.726563-.355469 3.050782-.355469.472656.007813.914062-.242187 1.15625-.652344.238281-.410156.238281-.917969 0-1.328125-.242188-.410156-.683594-.660156-1.15625-.652344-.25 0-.503907-.003906-.761719-.003906zm0 0"/><path d="m14.554688 4.21875v2.644531h10.582031c.734375 0 1.324219.59375 1.324219 1.324219v9.261719c1.464843 0 2.644531-1.179688 2.644531-2.644531v-7.941407c0-1.464843-1.179688-2.644531-2.644531-2.644531zm0 0"/><path d="m8.601562 24.726562v-2.644531h6.597657c.367187 0 .660156.292969.660156.660157v1.324218c0 .363282-.292969.660156-.660156.660156zm0 0"/><path d="m9.261719 18.773438v9.261718l-6.617188-4.632812zm0 0"/></g></svg>

<?xml version="1.0" encoding="UTF-8"?>
<svg xmlns="http://www.w3.org/2000/svg" xmlns:xlink="http://www.w3.org/1999/xlink" width="32px" height="32px" viewBox="0 0 32 32" version="1.1">
<g id="surface1">
<path style=" stroke:none;fill-rule:nonzero;fill:rgb(87.843138%,87.843138%,87.843138%);fill-opacity:1;" d="M 13.792969 4.222656 C 12.671875 4.226562 11.472656 4.289062 10.328125 4.859375 C 9.203125 5.421875 8.363281 6.589844 8.0625 8.1875 L 5.292969 8.1875 C 3.828125 8.1875 2.644531 9.367188 2.644531 10.835938 L 2.644531 16.125 L 5.292969 16.125 L 5.292969 12.15625 C 5.292969 11.425781 5.882812 10.835938 6.613281 10.835938 L 8.0625 10.835938 C 8.363281 12.433594 9.203125 13.601562 10.328125 14.164062 C 11.738281 14.867188 13.230469 14.796875 14.554688 14.796875 L 26.460938 14.796875 L 26.460938 24.066406 C 26.460938 24.796875 25.871094 25.386719 25.136719 25.386719 L 18.523438 25.386719 L 18.523438 27.371094 C 18.523438 27.613281 18.457031 27.839844 18.347656 28.035156 L 26.460938 28.035156 C 27.925781 28.035156 29.105469 26.855469 29.105469 25.386719 L 29.105469 13.652344 C 29.121094 13.535156 29.121094 13.417969 29.105469 13.304688 L 29.105469 10.835938 C 29.105469 9.367188 27.925781 8.1875 26.460938 8.1875 L 26.460938 12.164062 L 14.554688 12.164062 C 13.230469 12.164062 12.078125 12.09375 11.503906 11.804688 C 10.929688 11.519531 10.578125 11.203125 10.578125 9.511719 C 10.578125 7.820312 10.929688 7.503906 11.503906 7.214844 C 12.078125 6.929688 13.230469 6.859375 14.554688 6.859375 C 15.027344 6.867188 15.46875 6.617188 15.710938 6.207031 C 15.949219 5.796875 15.949219 5.289062 15.710938 4.878906 C 15.46875 4.46875 15.027344 4.21875 14.554688 4.226562 C 14.304688 4.226562 14.050781 4.222656 13.792969 4.222656 Z M 13.792969 4.222656 "/>
<path style=" stroke:none;fill-rule:nonzero;fill:rgb(87.843138%,87.843138%,87.843138%);fill-opacity:1;" d="M 14.554688 4.21875 L 14.554688 6.863281 L 25.136719 6.863281 C 25.871094 6.863281 26.460938 7.457031 26.460938 8.1875 L 26.460938 17.449219 C 27.925781 17.449219 29.105469 16.269531 29.105469 14.804688 L 29.105469 6.863281 C 29.105469 5.398438 27.925781 4.21875 26.460938 4.21875 Z M 14.554688 4.21875 "/>
<path style=" stroke:none;fill-rule:nonzero;fill:rgb(87.843138%,87.843138%,87.843138%);fill-opacity:1;" d="M 8.601562 24.726562 L 8.601562 22.082031 L 15.199219 22.082031 C 15.566406 22.082031 15.859375 22.375 15.859375 22.742188 L 15.859375 24.066406 C 15.859375 24.429688 15.566406 24.726562 15.199219 24.726562 Z M 8.601562 24.726562 "/>
<path style=" stroke:none;fill-rule:nonzero;fill:rgb(87.843138%,87.843138%,87.843138%);fill-opacity:1;" d="M 9.261719 18.773438 L 9.261719 28.035156 L 2.644531 23.402344 Z M 9.261719 18.773438 "/>
</g>
</svg>
